X: 37318
T: Skye Boat Song, The
R: waltz
M: 3/4
K: Gmajor
D>E D G2 G|A>B A d3|B>A B E2 E|D2 D2 D2|
D>E D G2 G|A>B A d3|B>A B E2 E|E>D D D3||
B>G B B3|A>E A A3|G>E F G2|G2 E2 E2|
B>G B B3|A>E A A3|G>E F G2|E2 D2 D2|
D3 D>E D|G2 G A>B A|d3 B>A B|E2 E D3|
D3 D>E D|G2 G A>B A|d3 B>A B|E2 E2 F2|G2 G2 G2||

